X: 34
T: No_135_My_Love_Has_Departed.krn
N: Derived from No_135_My_Love_Has_Departed.krn
%%abc-version 2.0
%%abcx-abcm2ps-target-version 5.9.1 (29 Sep 2008)
%%abc-creator hum2abc beta
%%abcx-conversion-date 2019/03/15 08:29:13
%%humdrum-veritas 1222305794
%%humdrum-veritas-data 1742518031
%%linebreak <none>
%%barnumbers 0
L: 1/4
M: 2/4
K: C clef=treble
[K:clef=treble][M:2/4]A3//A//B ||  
[M:3/4]A3 ||  
[M:2/4](AG3//)E// ||  
[M:3/4]A(A2 ||  
[M:2/4]E3//)E//^F | 
E2 | 
(ED3//)D// ||  
[M:3/4]ED2 ||  
[M:2/4]EA ||  
[M:3/4]AG2 ||  
[M:2/4](GE3//)D// ||  
[M:3/4]ED2 | 
A,/D/DC ||  
[M:2/4]C3/A,/ ||  
[M:3/4]CA,2 | 
A2B | 
A3 ||  
[M:2/4](AG3//)E// ||  
[M:3/4]AA2 ||  
[M:2/4]E3//E//^F | 
E2 | 
(ED3//)D// | 
[M:3/4]ED2 [I:setbarnb 24]||  
[M:2/4]zE ||  
[M:3/4]A3/A/G | 
E3/^F/E | 
D3/E/D ||  
[M:2/4]C2 ||  
[M:3/4]A,3 ||  
[M:2/4]A3//A//B ||  
[M:3/4]A3 ||  
[M:2/4](AG3//)E// ||  
[M:3/4]A(A2 ||  
[M:2/4]E3//)E//^F | 
E2 | 
(ED3//)D// ||  
[M:3/4]ED2 ||  
[M:2/4]EA ||  
[M:3/4]AG3/G/ ||  
[M:2/4]E3//^F//E | 
D2 ||  
[M:3/4]A,/D/DC ||  
[M:2/4](CA,/)A,/ ||  
[M:3/4]CA,2 |]  



